X:65
T:Britan. JBa.64
M:3/4
L:1/4
Q:3/4=60
S:Joseph Barnes MS,Carlisle,1762.
R:.Air
O:England
A:Carlisle
N:Well I think it sounds wierd in A major
H:Pipes compatible-PR..
Z:vmp.C.Graebe.
K:A minor
"_No key/time sig"
E | AAB | c A/B/c/d/ | eea | g f/g/ e |!
aaa | eee | d/e/f/e/d/c/ | B3:|!
|:g | g a/g/f/e/ | f g/f/e/d/ | e f/e/d/c/ | dGg |!
g>a g | ecd | e f/e/d/c/ | c2 d |!
e f/e/d/c/ | d e/d/c/B/ | c d/c/B/A/ | GEA | !
A2B | c/d/e/ d/c/B>A | A3 ?

